X:1
T:Amo Te, 11.11.11.11.11
T:Amo Te, 11.11.11.11.11
T:Arr. by John Turner Layton, Sr., 1898
T:Public Domain Courtesy of the Cyber Hymnal™
C:Arr. by John Turner Layton, Sr., 1898
Z:Public Domain
Z:Courtesy of the Cyber Hymnal™
%%score ( 1 2 ) ( 3 4 )
L:1/8
Q:1/4=93
M:2/4
K:Bb
V:1 treble 
V:2 treble 
V:3 bass 
V:4 bass 
V:1
 F | [FB]2 [DB][Fd] | [DF]2 [DF][DG] | (FE) [A,D][A,C] | B,2 z [DB] | [Ec]2 [Ec][Ec] | %6
 ([DB]<[Fd]) [Ge][Ge] | ([Fd][Ec]) [DB][EA] | [DB]3 [DB] | [Fd]2 [Fd][Fd] | [Ec]2 [Ed][Ec] | %11
 [DB]2 [GB][EG] | G<F z [CE] | ([B,D][DF]) [FB][Fc] | [FB]2 FF | (Bd) [Bf][Bf] | [Bd]2 [FB][FB] | %17
 [Ac]2 [Ac][Ac] | [Bd]2 [Fd][Ge] | (dc) [FB][FA] | [FB]3 |] %21
V:2
 F | x4 | x4 | C2 x2 | B,2 x2 | x4 | x4 | x4 | x4 | x4 | x4 | x4 | D2 x2 | x4 | x2 FF | F2 x2 | %16
 x4 | x4 | x4 | F2 x2 | x3 |] %21
V:3
 F, | [D,B,]2 [B,,B,][B,,B,] | [B,,B,]2 [B,,B,][B,,B,] | [F,A,]2 [F,,F,][F,,F,] | %4
 [B,,D,]2 z [B,,F,] | [F,A,]2 [F,A,][F,A,] | B,2 B,B, | (B,A,) [F,,F,][F,,F,] | [B,,F,]3 [B,D] | %9
 B,2 B,B, | [F,A,]2 [F,B,][F,A,] | [G,B,]2 [E,B,][E,B,] | [B,,B,]3 [F,A,] | [B,,B,]2 [D,B,][F,A,] | %14
 [B,D]2 [B,D][B,D] | [B,D]2 [B,D][B,D] | [B,F]2 [B,D][B,D] | [F,F]2 [F,F][F,F] | %18
 [B,,F]2 [B,,B,][B,,B,] | (B,A,) [F,,D][F,,C] | [B,,D]3 |] %21
V:4
 F, | x4 | x4 | x4 | x4 | x4 | B,2 B,B, | F,2 x2 | x4 | B,2 B,B, | x4 | x4 | x4 | x4 | x4 | x4 | %16
 x4 | x4 | x4 | F,2 x2 | x3 |] %21

